icons/svg/icons8/bra.svg

<svg width="26" height="26" viewBox="0 0 26 26" fill="none" xmlns="http://www.w3.org/2000/svg">
<path d="M24.9999 19.512C24.9999 21.98 22.5439 23.981 19.5129 23.981C16.4819 23.981 14.0259 22.001 14.0259 20.512C14.0259 17.72 18.2639 13.85 24.0009 14.049C24.4239 15.372 24.9999 17.045 24.9999 19.512Z" fill="#333333"/>
<path d="M23 14C23 13.167 23 12.248 23 10.625C23 8.325 23.688 6 25 4" stroke="#333333" stroke-width="2" stroke-miterlimit="10" stroke-linecap="round" stroke-linejoin="round"/>
<path d="M1 19.512C1 21.98 3.456 23.981 6.487 23.981C9.518 23.981 11.974 22.001 11.974 20.512C11.974 17.72 7.736 13.85 1.999 14.049C1.576 15.372 1 17.045 1 19.512Z" fill="#333333"/>
<path d="M3 14C3 13.167 3 12.248 3 10.625C3 8.325 2.313 6 1 4" stroke="#333333" stroke-width="2" stroke-miterlimit="10" stroke-linecap="round" stroke-linejoin="round"/>
<path d="M10 20C10 20 11 21 13 21C15 21 16 20 16 20" stroke="#333333" stroke-width="2" stroke-miterlimit="10" stroke-linecap="round" stroke-linejoin="round"/>
</svg>

<?xml version="1.0" encoding="utf-8"?>
<!-- Generator: Adobe Illustrator 15.0.0, SVG Export Plug-In . SVG Version: 6.00 Build 0)  -->
<!DOCTYPE svg PUBLIC "-//W3C//DTD SVG 1.1//EN" "http://www.w3.org/Graphics/SVG/1.1/DTD/svg11.dtd">
<svg version="1.1" id="Layer_1" xmlns="http://www.w3.org/2000/svg" xmlns:xlink="http://www.w3.org/1999/xlink" x="0px" y="0px"
	 width="26px" height="26px" viewBox="0 0 26 26" enable-background="new 0 0 26 26" xml:space="preserve">
<rect fill="none" width="26" height="26"/>
<path fill="#333333" d="M25,19.512c0,2.468-2.456,4.469-5.487,4.469s-5.487-1.98-5.487-3.469c0-2.792,4.238-6.662,9.975-6.463
	C24.424,15.372,25,17.045,25,19.512z"/>
<path fill="none" stroke="#333333" stroke-width="2" stroke-linecap="round" stroke-linejoin="round" stroke-miterlimit="10" d="
	M23,14c0-0.833,0-1.752,0-3.375C23,8.325,23.688,6,25,4"/>
<path fill="#333333" d="M1,19.512c0,2.468,2.456,4.469,5.487,4.469s5.487-1.98,5.487-3.469c0-2.792-4.238-6.662-9.975-6.463
	C1.576,15.372,1,17.045,1,19.512z"/>
<path fill="none" stroke="#333333" stroke-width="2" stroke-linecap="round" stroke-linejoin="round" stroke-miterlimit="10" d="
	M3,14c0-0.833,0-1.752,0-3.375C3,8.325,2.313,6,1,4"/>
<path fill="none" stroke="#333333" stroke-width="2" stroke-linecap="round" stroke-linejoin="round" stroke-miterlimit="10" d="
	M10,20c0,0,1,1,3,1s3-1,3-1"/>
</svg>
